lib/assets/icons/svg/outlined-product-outlet.svg

<svg xmlns="http://www.w3.org/2000/svg" viewBox="0 0 24 24"><path d="M5.755 21.415a1 1 0 0 1-1-1l.71-13.4a1 1 0 0 1 1-.93h2.12a3.74 3.74 0 0 1 3.38-3.5h.12a3.75 3.75 0 0 1 3.325 3.5h2.155a1 1 0 0 1 1 .93l.68 13.38a1 1 0 0 1-.94 1H5.755zm11.77-14.33H6.445l-.66 13.36h12.46zm-5.56-3.5a2.731 2.731 0 0 0-2.392 2.5h4.836a2.76 2.76 0 0 0-2.444-2.5zm-2.92 13.64a.49.49 0 0 1-.35-.14.5.5 0 0 1 0-.71l5.9-5.79a.49.49 0 0 1 .7 0 .5.5 0 0 1 0 .71l-5.9 5.79a.498.498 0 0 1-.35.14zm.8-3.85c-1.259-.099-1.939-1.523-1.224-2.563.28-.409.73-.668 1.224-.707a1.65 1.65 0 0 1 1.66 1.61c.014.434-.153.853-.46 1.16a1.6 1.6 0 0 1-1.15.5zm0-2.27a.631.631 0 0 0-.64.65.597.597 0 0 0 .19.44.65.65 0 0 0 .46.18.597.597 0 0 0 .44-.19.65.65 0 0 0 .18-.46.63.63 0 0 0-.62-.64zm4.27 6.48h.02zm-1.15-.5a1.65 1.65 0 0 1-.5-1.15 1.67 1.67 0 0 1 .5-1.12 1.644 1.644 0 0 1 1.15-.5c1.259.099 1.939 1.523 1.224 2.563-.28.409-.729.668-1.223.707a1.618 1.618 0 0 1-1.151-.5zm1.17-1.77a.64.64 0 0 0-.46.19.63.63 0 0 0 .45 1.08.64.64 0 0 0 .63-.65.63.63 0 0 0-.61-.62z"/></svg>

<svg viewBox="0 0 24 24" xmlns="http://www.w3.org/2000/svg">
  <path  d="M 5.755 21.415 C 5.203 21.415 4.755 20.967 4.755 20.415 L 5.465 7.015 C 5.502 6.49 5.939 6.084 6.465 6.085 L 8.585 6.085 C 8.691 4.267 10.11 2.761 11.965 2.585 L 12.085 2.585 C 13.92 2.791 15.303 4.291 15.41 6.085 L 17.565 6.085 C 18.091 6.084 18.528 6.49 18.565 7.015 L 19.245 20.395 C 19.246 20.925 18.834 21.363 18.305 21.395 L 5.755 21.395 Z M 17.525 7.085 L 6.445 7.085 L 5.785 20.445 L 18.245 20.445 Z M 11.965 3.585 C 10.655 3.745 9.67 4.81 9.573 6.085 L 14.409 6.085 C 14.297 4.801 13.293 3.733 11.965 3.585 Z M 9.045 17.225 C 8.914 17.227 8.788 17.176 8.695 17.085 C 8.498 16.889 8.498 16.571 8.695 16.375 L 14.595 10.585 C 14.787 10.389 15.103 10.389 15.295 10.585 C 15.492 10.781 15.492 11.099 15.295 11.295 L 9.395 17.085 C 9.301 17.176 9.175 17.226 9.045 17.225 Z M 9.845 13.375 C 8.586 13.276 7.906 11.852 8.621 10.812 C 8.901 10.403 9.351 10.144 9.845 10.105 C 10.745 10.099 11.483 10.815 11.505 11.715 C 11.519 12.149 11.352 12.568 11.045 12.875 C 10.746 13.191 10.33 13.372 9.895 13.375 Z M 9.845 11.105 C 9.672 11.103 9.506 11.171 9.385 11.295 C 9.267 11.419 9.202 11.584 9.205 11.755 C 9.204 11.922 9.273 12.081 9.395 12.195 C 9.519 12.313 9.684 12.378 9.855 12.375 C 10.022 12.376 10.181 12.307 10.295 12.185 C 10.413 12.061 10.478 11.896 10.475 11.725 C 10.481 11.377 10.203 11.09 9.855 11.085 Z M 14.115 17.585 C 14.115 17.585 14.116 17.585 14.116 17.585 C 14.123 17.585 14.129 17.585 14.135 17.585 Z M 12.965 17.085 C 12.653 16.782 12.474 16.369 12.465 15.935 C 12.484 15.512 12.662 15.111 12.965 14.815 C 13.267 14.503 13.681 14.323 14.115 14.315 C 15.374 14.414 16.054 15.838 15.339 16.878 C 15.059 17.287 14.61 17.546 14.116 17.585 C 13.681 17.58 13.266 17.4 12.965 17.085 Z M 14.135 15.315 C 13.962 15.314 13.796 15.382 13.675 15.505 C 13.423 15.752 13.423 16.158 13.675 16.405 C 13.795 16.523 13.957 16.587 14.125 16.585 C 14.478 16.58 14.761 16.288 14.755 15.935 C 14.75 15.599 14.481 15.326 14.145 15.315 Z" style=""/>
</svg>
